X:1
T:Title
%%score { ( 1 3 ) | 2 }
L:1/8
Q:1/4=100
M:4/4
K:Ab
V:1 treble nm="Grand Piano"
V:3 treble 
V:2 bass 
V:1
 [CE]2 [DF][CE] [CE]2 [EA]B | c2 d2 c3 [Ec] | [=DB]2 [DF][DF] [DB]2 [DA]2 | [EG]6 z2 | %4
w: J.~M.~Black * * * * *||||
 [CE]2 [DF][CE] [CE]2 [CA][DB] | [Ec][Ec] [Ee]2 [DF]3 [DF] | .B2 z2 z4 | [CA]6 z2 | %8
w: ||||
 [Fd]2 [Fd].[Fd] [Ec]2 .[Ec]2 | B2 Bc B3 B | A2 AA [=DB]2 [DA]2 | [EG]6 z2 | %12
w: ||||
 [CE]2 [DF][CE] [CE]2 [CA][DB] | [Ec]2 [Ee]2 [DF]3 [DF] | .B2 z2 z4 | [CA]6 z2 |] %16
w: ||||
V:2
 [A,,A,]2 [A,,A,][A,,A,] [A,,A,]2 [C,A,][E,G,E] | [A,E]2 [A,F]2[K:bass] [A,E]3 [A,,A,] | %2
 [B,,A,]2 [B,,A,][B,,A,] [B,,F,]2 [B,,B,]2 | [E,B,]6 z2 | %4
 [A,,A,]2 [A,,A,][A,,A,] [A,,A,]2 [A,,E,][A,,E,] | [A,,A,]2 [C,A,]2 [D,A,]3 [D,A,] | %6
 [D,A,][C,=A,][B,,B,][B,,B,] [E,G,]2 [E,G,]2 | [A,,A,]6 z2 | %8
 [D,A,]2 [D,A,].[D,A,] [A,,A,]2 .[A,,A,]2 | [E,G,E]2 [E,G,E][E,A,E] [E,G,E]3 [=E,G,D] | %10
 [F,A,C]2 [F,CF][F,CF] [B,,B,]2 [B,,B,]2 | [E,B,]6 z2 | %12
 [A,,A,]2 [A,,A,][A,,A,] [A,,A,]2 [A,,E,][A,,E,] | [A,,A,]2 [C,A,]2 [D,A,]3 [D,A,] | %14
 [D,A,][C,=A,][B,,B,][B,,B,] [E,G,]2 [E,G,]2 | [A,,A,]6 z2 |] %16
V:3
 x8 | x8 | x8 | x8 | x8 | x8 | F-[Fc][Fd][Fd] [Ec]2 [DB]2 | x8 | x8 | x8 | x8 | x8 | x8 | x8 | %14
 F-[Fc][Fd][Fd] [Ec]2 [DB]2 | x8 |] %16

